X:16
T:Farther Along (#011)
C:J.R.Baxter and W.B.Stevens
M:9/8    %(3/4, 4/4, 6/8)
L:1/8    %(1/8, 1/4)
%V:1 treble clef
K:D    %(D, C)
|"A7""^Verses"FAF
w:1~Temp-ted and
w:2~When we see
w:3~Some-times I
w:4~Soon we will
|"D"D3 F3 "G"EDE|"D"D3 D3 FAB
w:tried, we're oft made to wan-der, why it should
w:Je-sus com-ing in glo-ry, when He comes
w:won-der why I must suf-fer, go in the
w:see our dear lov-ing Sav-iour, hear the last
|A3 "Bm"F3 "E7"FED| "A7"E3-E3 FAF|"D"D3 F3 "G"EDE
w:be thus, all the day long._ While there are oth-ers liv-ing a-
w:from His home in the sky,_ Then we shall meet Him in that bright
w:cold, the rain and the snow,_ While ma-ny wick-ed live in great
w:trump-pet sound thro' the sky;_ Then we will meet those gone on be-
|"D"D3 D3 FAB|"Bm"A3 F3 "A7"EFE|"D"D3-D3||
w:bout us, Ne-ver mo-lest-ed, tho in the wrong._
w:man-sion, We'll un-der-stand it all by and by._
w:splend-or, Heed-less of where at last they must go._
w:fore us, And we shall know and un-der-stand why._
|"A7""^Refrain"FAB
w:Far-ther a-
|"D"A3 F3 "G"EDE|"D"D3 D3 FAB|"Bm"A3 F3 "E7"FED|"A7"E3-E3 FAF
w:long we'll know all a-bout it, Far-ther a-long we'll un-der-stand why;_ Cheer up my
|"D"D3 F3 "G"EDE|"D"D3 D3 "^TAG"FAB|"Bm"A3 F3 "A7"EFE|"D"D3-D3||
w:bro-ther, live in the sun-shine, we'll un-der-stand it all by and by._

%Scotland The Brave - 012
%%scale 1.09
